www/assets/icons/task_alt.svg

<svg xmlns="http://www.w3.org/2000/svg" width="24" height="24" viewBox="0 0 24 24" fill='currentColor'><path d="M22 5.18 10.59 16.6l-4.24-4.24 1.41-1.41 2.83 2.83 10-10zm-2.21 5.04c.13.57.21 1.17.21 1.78 0 4.42-3.58 8-8 8s-8-3.58-8-8 3.58-8 8-8c1.58 0 3.04.46 4.28 1.25l1.44-1.44A9.9 9.9 0 0 0 12 2C6.48 2 2 6.48 2 12s4.48 10 10 10 10-4.48 10-10c0-1.19-.22-2.33-.6-3.39z"/></svg>

<svg width="24" height="24" viewBox="0 0 24 24" xmlns="http://www.w3.org/2000/svg" fill='currentColor'><path d="M22 5.18L10.59 16.6L6.35 12.36L7.76 10.95L10.59 13.78L20.59 3.78L22 5.18ZM19.79 10.22C19.92 10.79 20 11.39 20 12C20 16.42 16.42 20 12 20C7.58 20 4 16.42 4 12C4 7.58 7.58 4 12 4C13.58 4 15.04 4.46 16.28 5.25L17.72 3.81C16.1 2.67 14.13 2 12 2C6.48 2 2 6.48 2 12C2 17.52 6.48 22 12 22C17.52 22 22 17.52 22 12C22 10.81 21.78 9.67 21.4 8.61L19.79 10.22Z"/></svg>
